X:1
T: Toss the Feathers
T: Toss the Feathers v3
T: Craith na Cleiteacha
S: "Ceol Rince na hEireann" 1/195
Z: B.Black
L: 1/8
M: 4/4
R: reel
K: Edor
E3G B2 BA|EB B2 AGFD|E2 EG B3c|d2 ec dBAF|
EB B2 B2 BA|EB B2 AGFD|E3B BABc|dfec dBAd||
Beee e3g|fede fedf|g3e f3g|afdf afdf|
gb (3bbb fa (3aaa|egfe dBAF|G2 GF GABc|dcdB AGFD||

